app/dist/common/images/troika-media-group.svg

<svg height="18" viewBox="0 0 18 18" width="18" xmlns="http://www.w3.org/2000/svg"><path d="m0 0h18v18h-18z" fill="#f0f3fa"/><path d="m3 7h-1v1h1v3h1v-3h1v-1zm2.5 0h1l1.03 2.05.97-2.05h1v4h-1v-1.9l-.97 1.9-1.03-1.92v1.92h-1zm6.5 4a2 2 0 0 0 2-2v-.46h-2v.77h.95a1 1 0 1 1 -.21-.98l.66-.76a2 2 0 0 0 -3.4 1.43c0 1.1.9 2 2 2z" fill="#010101"/><path d="m15.25 8.5a.75.75 0 1 0 0-1.5.75.75 0 0 0 0 1.5zm0 2.5a.75.75 0 1 0 0-1.5.75.75 0 0 0 0 1.5z" fill="#064d8a"/></svg>

<!-- by TradingView --><svg xmlns="http://www.w3.org/2000/svg" width="18" height="18" viewBox="0 0 18 18"><path fill="#F0F3FA" d="M0 0h18v18H0z"/><path d="M3 7H2v1h1v3h1V8h1V7H3zM5.5 7h1l1.03 2.05L8.5 7h1v4h-1V9.1L7.53 11 6.5 9.08V11h-1V7zM12 11a2 2 0 0 0 2-2v-.46h-2v.77h.95a1 1 0 1 1-.21-.98l.66-.76A2 2 0 0 0 10 9c0 1.1.9 2 2 2z" fill="#010101"/><path d="M15.25 8.5a.75.75 0 1 0 0-1.5.75.75 0 0 0 0 1.5zm0 2.5a.75.75 0 1 0 0-1.5.75.75 0 0 0 0 1.5z" fill="#064D8A"/></svg>
